TV/Source/Jednotka HD - Original.svg

<svg height="12.053333" viewBox="0 0 3.4014831 3.1890947" width="12.855999" xmlns="http://www.w3.org/2000/svg" xmlns:xlink="http://www.w3.org/1999/xlink"><clipPath id="a"><path d="m84.773 524h9.642v9.04h-9.642z"/></clipPath><path d="m0 3.1888416h3.401483v-3.18911097h-3.401483z" fill="#e3004f"/><g clip-path="url(#a)" transform="matrix(.35277777 0 0 -.35277777 -29.906029 188.04439)"><g transform="translate(90.6725 531.2402)"><path d="m0 0-1.613-.869.256-.646c.049-.157.196-.272.37-.272.06 0 .116.014.167.039l.373.152v-3.845h.902c.214 0 .387.173.387.387v5.054z" fill="#fff"/></g><g transform="translate(87.6545 530.2307)"><path d="m0 0c-.405 0-.734-.332-.734-.741 0-.408.329-.741.734-.741s.734.333.734.741c0 .409-.329.741-.734.741" fill="#fff"/></g><g transform="translate(87.6545 527.9886)"><path d="m0 0c-.405 0-.734-.332-.734-.741 0-.408.329-.741.734-.741s.734.333.734.741c0 .409-.329.741-.734.741" fill="#fff"/></g><g transform="translate(92.0601 531.2352)"><path d="m0 0v-.446h.264v.446h.252v-1.113h-.252v.466h-.264v-.466h-.252v1.113z" fill="#fff"/></g><g transform="translate(93.051 530.2941)"><path d="m0 0c .012-.003.031-.003.044-.003.121 0 .227.102.227.409 0 .228-.069.367-.221.367-.017 0-.035 0-.05-.005zm-.252.925c.063.013.156.021.256.021.163 0 .277-.033.36-.099.111-.086.169-.233.169-.449 0-.225-.067-.385-.181-.471-.086-.072-.215-.107-.396-.107-.079 0-.158.007-.208.012z" fill="#fff"/></g></g></svg>

<?xml version="1.0" encoding="UTF-8" standalone="no"?>
<svg
   xmlns:dc="http://purl.org/dc/elements/1.1/"
   xmlns:cc="http://creativecommons.org/ns#"
   xmlns:rdf="http://www.w3.org/1999/02/22-rdf-syntax-ns#"
   xmlns:svg="http://www.w3.org/2000/svg"
   xmlns="http://www.w3.org/2000/svg"
   xmlns:sodipodi="http://sodipodi.sourceforge.net/DTD/sodipodi-0.dtd"
   xmlns:inkscape="http://www.inkscape.org/namespaces/inkscape"
   height="12.053333"
   width="12.855999"
   version="1.1"
   viewBox="0 0 3.4014831 3.1890947"
   id="svg20"
   sodipodi:docname="Jednotka HD - Original.svg"
   inkscape:version="0.92.0 r15299">
  <metadata
     id="metadata26">
    <rdf:RDF>
      <cc:Work
         rdf:about="">
        <dc:format>image/svg+xml</dc:format>
        <dc:type
           rdf:resource="http://purl.org/dc/dcmitype/StillImage" />
        <dc:title></dc:title>
      </cc:Work>
    </rdf:RDF>
  </metadata>
  <defs
     id="defs24">
    <clipPath
       clipPathUnits="userSpaceOnUse"
       id="clipPath17890">
      <path
         d="m 84.773,524 h 9.642 v 9.04 h -9.642 z"
         id="path17888"
         inkscape:connector-curvature="0" />
    </clipPath>
  </defs>
  <sodipodi:namedview
     pagecolor="#ffffff"
     bordercolor="#666666"
     borderopacity="1"
     objecttolerance="10"
     gridtolerance="10"
     guidetolerance="10"
     inkscape:pageopacity="0"
     inkscape:pageshadow="2"
     inkscape:window-width="1920"
     inkscape:window-height="1017"
     id="namedview22"
     showgrid="false"
     fit-margin-top="0"
     fit-margin-left="0"
     fit-margin-right="0"
     fit-margin-bottom="0"
     inkscape:zoom="42.841243"
     inkscape:cx="2.5408926"
     inkscape:cy="7.7300658"
     inkscape:window-x="-8"
     inkscape:window-y="-8"
     inkscape:window-maximized="1"
     inkscape:current-layer="svg20" />
  <path
     d="M 0,3.1888416 H 3.401483 V -2.6937007e-4 H 0 Z"
     style="fill:#e3004f;fill-opacity:1;fill-rule:nonzero;stroke:none;stroke-width:0.35277775"
     id="path17882"
     inkscape:connector-curvature="0" />
  <g
     transform="matrix(0.35277777,0,0,-0.35277777,-29.906029,188.04439)"
     id="g17884">
    <g
       id="g17886"
       clip-path="url(#clipPath17890)">
      <g
         id="g17892"
         transform="translate(90.6725,531.2402)">
        <path
           d="m 0,0 -1.613,-0.869 0.256,-0.646 c 0.049,-0.157 0.196,-0.272 0.37,-0.272 0.06,0 0.116,0.014 0.167,0.039 l 0.373,0.152 v -3.845 h 0.902 c 0.214,0 0.387,0.173 0.387,0.387 V 0 Z"
           style="fill:#ffffff;fill-opacity:1;fill-rule:nonzero;stroke:none"
           id="path17894"
           inkscape:connector-curvature="0" />
      </g>
      <g
         id="g17896"
         transform="translate(87.6545,530.2307)">
        <path
           d="m 0,0 c -0.405,0 -0.734,-0.332 -0.734,-0.741 0,-0.408 0.329,-0.741 0.734,-0.741 0.405,0 0.734,0.333 0.734,0.741 C 0.734,-0.332 0.405,0 0,0"
           style="fill:#ffffff;fill-opacity:1;fill-rule:nonzero;stroke:none"
           id="path17898"
           inkscape:connector-curvature="0" />
      </g>
      <g
         id="g17900"
         transform="translate(87.6545,527.9886)">
        <path
           d="m 0,0 c -0.405,0 -0.734,-0.332 -0.734,-0.741 0,-0.408 0.329,-0.741 0.734,-0.741 0.405,0 0.734,0.333 0.734,0.741 C 0.734,-0.332 0.405,0 0,0"
           style="fill:#ffffff;fill-opacity:1;fill-rule:nonzero;stroke:none"
           id="path17902"
           inkscape:connector-curvature="0" />
      </g>
      <g
         id="g17904"
         transform="translate(92.0601,531.2352)">
        <path
           d="M 0,0 V -0.446 H 0.264 V 0 H 0.516 V -1.113 H 0.264 v 0.466 H 0 V -1.113 H -0.252 V 0 Z"
           style="fill:#ffffff;fill-opacity:1;fill-rule:nonzero;stroke:none"
           id="path17906"
           inkscape:connector-curvature="0" />
      </g>
      <g
         id="g17908"
         transform="translate(93.051,530.2941)">
        <path
           d="m 0,0 c 0.012,-0.003 0.031,-0.003 0.044,-0.003 0.121,0 0.227,0.102 0.227,0.409 0,0.228 -0.069,0.367 -0.221,0.367 -0.017,0 -0.035,0 -0.05,-0.005 z m -0.252,0.925 c 0.063,0.013 0.156,0.021 0.256,0.021 0.163,0 0.277,-0.033 0.36,-0.099 C 0.475,0.761 0.533,0.614 0.533,0.398 0.533,0.173 0.466,0.013 0.352,-0.073 0.266,-0.145 0.137,-0.18 -0.044,-0.18 c -0.079,0 -0.158,0.007 -0.208,0.012 z"
           style="fill:#ffffff;fill-opacity:1;fill-rule:nonzero;stroke:none"
           id="path17910"
           inkscape:connector-curvature="0" />
      </g>
    </g>
  </g>
</svg>
